src/images/link_advocate.svg

<svg width="102" height="102" viewBox="0 0 102 102" fill="none" xmlns="http://www.w3.org/2000/svg">
<path d="M73.2 46.1L48.7 29.9C48.3 29.6 47.8 29.7 47.4 29.9L24.4 47.1C23.5 47.8 24 49.2 25.1 49.2L29.7 49.1V68.8H68V48.3L72.6 48.2C73.8 48.2 74.2 46.7 73.2 46.1Z" fill="white" stroke="#040000" stroke-width="1.036" stroke-miterlimit="10" stroke-linecap="round" stroke-linejoin="round"/>
<path d="M49.1 63.8C55.4513 63.8 60.6 58.6513 60.6 52.3C60.6 45.9487 55.4513 40.8 49.1 40.8C42.7487 40.8 37.6 45.9487 37.6 52.3C37.6 58.6513 42.7487 63.8 49.1 63.8Z" fill="#FFE500" stroke="#040000" stroke-width="0.8373" stroke-miterlimit="10"/>
<path d="M49.2 52.9L42 65.3H56.3L49.2 52.9Z" fill="#040000" stroke="#040000" stroke-width="0.8373" stroke-miterlimit="10"/>
<path d="M56.3 40.1L49.1 52.5H63.4L56.3 40.1Z" fill="#040000" stroke="#040000" stroke-width="0.8373" stroke-miterlimit="10"/>
<path d="M41.5 40.1L34.4 52.5H48.7L41.5 40.1Z" fill="#040000" stroke="#040000" stroke-width="0.8373" stroke-miterlimit="10"/>
<path d="M49.2 61.9C54.4467 61.9 58.7 57.6467 58.7 52.4C58.7 47.1533 54.4467 42.9 49.2 42.9C43.9533 42.9 39.7 47.1533 39.7 52.4C39.7 57.6467 43.9533 61.9 49.2 61.9Z" stroke="#040000" stroke-width="0.8373" stroke-miterlimit="10"/>
<path d="M49.2 65.4C56.4349 65.4 62.3 59.5349 62.3 52.3C62.3 45.0651 56.4349 39.2 49.2 39.2C41.9651 39.2 36.1 45.0651 36.1 52.3C36.1 59.5349 41.9651 65.4 49.2 65.4Z" stroke="#DD3328" stroke-width="2.072" stroke-miterlimit="10"/>
<path d="M58.8 43.2L40.6 62.3" stroke="#DD3328" stroke-width="2.3986" stroke-miterlimit="10"/>
</svg>

<svg width="102" height="102" fill="none" xmlns="http://www.w3.org/2000/svg"><path d="M73.2 46.1 48.7 29.9c-.4-.3-.9-.2-1.3 0l-23 17.2c-.9.7-.4 2.1.7 2.1l4.6-.1v19.7H68V48.3l4.6-.1c1.2 0 1.6-1.5.6-2.1z" fill="#fff" stroke="#040000" stroke-width="1.036" stroke-miterlimit="10" stroke-linecap="round" stroke-linejoin="round"/><path d="M49.1 63.8c6.351 0 11.5-5.149 11.5-11.5s-5.149-11.5-11.5-11.5-11.5 5.149-11.5 11.5 5.149 11.5 11.5 11.5z" fill="#FFE500" stroke="#040000" stroke-width=".837" stroke-miterlimit="10"/><path d="M49.2 52.9 42 65.3h14.3l-7.1-12.4zM56.3 40.1l-7.2 12.4h14.3l-7.1-12.4zM41.5 40.1l-7.1 12.4h14.3l-7.2-12.4z" fill="#040000" stroke="#040000" stroke-width=".837" stroke-miterlimit="10"/><path d="M49.2 61.9a9.5 9.5 0 1 0 0-19 9.5 9.5 0 0 0 0 19z" stroke="#040000" stroke-width=".837" stroke-miterlimit="10"/><path d="M49.2 65.4c7.235 0 13.1-5.865 13.1-13.1 0-7.235-5.865-13.1-13.1-13.1-7.235 0-13.1 5.865-13.1 13.1 0 7.235 5.865 13.1 13.1 13.1z" stroke="#DD3328" stroke-width="2.072" stroke-miterlimit="10"/><path d="M58.8 43.2 40.6 62.3" stroke="#DD3328" stroke-width="2.399" stroke-miterlimit="10"/></svg>
